lib/healthicons/icons/outline/typography/2.svg

<svg fill="none" height="48" viewBox="0 0 48 48" width="48" xmlns="http://www.w3.org/2000/svg"><path clip-rule="evenodd" d="m35 18c0-4.9706-4.0294-9-9-9h-4c-3.9239 0-7.2532 2.5093-8.4871 6.0003-.5521 1.5621.2666 3.2761 1.8288 3.8282 1.5621.5522 3.2761-.2666 3.8282-1.8288.4129-1.1682 1.5275-1.9997 2.8301-1.9997h4c1.6569 0 3 1.3431 3 3 0 .8886-.3825 1.6835-1.0007 2.2368-.0285.0255-.0565.0515-.0839.078l-14 13.5278c-.8793.8497-1.155 2.148-.6968 3.2816.4582 1.1337 1.5586 1.8758 2.7814 1.8758h16c1.6569 0 3-1.3431 3-3s-1.3431-3-3-3h-8.578l8.6256-8.3346c1.8092-1.6422 2.9524-4.0222 2.9524-6.6654zm-9-7c3.866 0 7 3.134 7 7 0 2.0602-.8912 3.9137-2.3065 5.1934-.0081.0074-.0162.0149-.0241.0226l-10.4162 10.0649c-.2932.2832-.385.716-.2323 1.0938.1527.3779.5195.6253.9271.6253h11.052c.5523 0 1 .4477 1 1s-.4477 1-1 1h-16c-.4076 0-.7744-.2474-.9271-.6253-.1528-.3778-.0609-.8106.2322-1.0938l14-13.5278-.6948-.7191.6948.7191c.0092-.0089.0185-.0175.028-.026 1.0248-.9173 1.6669-2.2468 1.6669-3.7271 0-2.7614-2.2386-5-5-5h-4c-2.1744 0-4.0285 1.3889-4.7157 3.3332-.1841.5208-.7554.7937-1.2761.6096-.5208-.184-.7937-.7553-.6096-1.276.9606-2.718 3.5525-4.6668 6.6014-4.6668z" fill="#333" fill-rule="evenodd"/></svg>

<svg width="48" height="48" viewBox="0 0 48 48" fill="none" xmlns="http://www.w3.org/2000/svg">
<path fill-rule="evenodd" clip-rule="evenodd" d="M35 18C35 13.0294 30.9706 9 26 9H22C18.0761 9 14.7468 11.5093 13.5129 15.0003C12.9608 16.5624 13.7795 18.2764 15.3417 18.8285C16.9038 19.3807 18.6178 18.5619 19.1699 16.9997C19.5828 15.8315 20.6974 15 22 15H26C27.6569 15 29 16.3431 29 18C29 18.8886 28.6175 19.6835 27.9993 20.2368C27.9708 20.2623 27.9428 20.2883 27.9154 20.3148L13.9154 33.8426C13.0361 34.6923 12.7604 35.9906 13.2186 37.1242C13.6768 38.2579 14.7772 39 16 39H32C33.6569 39 35 37.6569 35 36C35 34.3431 33.6569 33 32 33H23.422L32.0476 24.6654C33.8568 23.0232 35 20.6432 35 18ZM26 11C29.866 11 33 14.134 33 18C33 20.0602 32.1088 21.9137 30.6935 23.1934C30.6854 23.2008 30.6773 23.2083 30.6694 23.216L20.2532 33.2809C19.96 33.5641 19.8682 33.9969 20.0209 34.3747C20.1736 34.7526 20.5404 35 20.948 35H32C32.5523 35 33 35.4477 33 36C33 36.5523 32.5523 37 32 37H16C15.5924 37 15.2256 36.7526 15.0729 36.3747C14.9201 35.9969 15.012 35.5641 15.3051 35.2809L29.3051 21.7531L28.6103 21.034L29.3051 21.7531C29.3143 21.7442 29.3236 21.7356 29.3331 21.7271L29.3331 21.7271C30.3579 20.8098 31 19.4803 31 18C31 15.2386 28.7614 13 26 13H22C19.8256 13 17.9715 14.3889 17.2843 16.3332C17.1002 16.854 16.5289 17.1269 16.0082 16.9428C15.4874 16.7588 15.2145 16.1875 15.3986 15.6668C16.3592 12.9488 18.9511 11 22 11H26Z" fill="#333333"/>
</svg>
